X: 172
M: 2/4
L: 1/16
K: G
!segno!DEFD |\
[| "2.f. enrondeau"GABc |\
dcdf edef | g4 bagb | agfa gfeg | f2d2 GABc |\
dcdf edef | g4 bagf | e2d2 ^cde^c | d4 !segno!y |]

